_includes/icons/ios-sale.svg

<svg fill="#666" height="50" viewBox="0 0 50 50" width="50" xmlns="http://www.w3.org/2000/svg"><path d="m30.171875 2.0390625c-.399567-.0293682-.809674.0420357-1.189453.2246094l-3.982422 1.8945312-3.984375-1.8964843h-.001953c-1.01129-.4825964-2.234821-.1787947-2.908203.7128906v.0019531l-2.648438 3.5332031-4.412109.1738282h-.001953c-1.1174336.0454428-2.0599762.883125-2.2382815 1.9882812l-.7050781 4.357422-3.8242188 2.207031c-.9697352.55823-1.4187387 1.735971-1.0644531 2.798828l1.4042969 4.189453-2.3632813 3.728516c-.5989281.944788-.449453 2.197273.3613281 2.972656l3.1855469 3.054688-.359375 4.40039c-.090946 1.116619.6262786 2.152123 1.6972657 2.464844h.0019531l4.2421871 1.222656 1.726563 4.064453v.001954c.43911 1.025707 1.55369 1.627353 2.660156 1.388672l4.320313-.884766 3.414062 2.794922v-.001953c.433277.355725.969778.537109 1.5.537109.532272 0 1.06593-.182336 1.498047-.537109l3.414062-2.794922 4.320313.884765c1.104312.236882 2.221571-.360539 2.660156-1.390625l1.726563-4.0625 4.240234-1.222656h.001953c1.073945-.310923 1.789893-1.349892 1.699219-2.464844l-.359375-4.402343 3.185547-3.054688c.809636-.775503.9626-2.027252.363281-2.972656l-2.363281-3.728516 1.404297-4.189453v-.001953c.350103-1.060408-.09388-2.23816-1.064453-2.796875l-3.826172-2.207031-.703125-4.3593752v-.0019532c-.182923-1.1005849-1.124668-1.9369805-2.242188-1.9824218l-4.412109-.1738282-2.648438-3.53125c-.336633-.448845-.812723-.749613-1.330078-.8769531-.129338-.031835-.261342-.0527106-.394531-.0625zm-10.134766 1.9296875c.048062.0049439.096503.0189794.142579.0410156l4.820312 2.2929688 4.820312-2.2929688h.001954c.181256-.087137.398705-.03545.523437.1308594l3.201172 4.2695312 5.332031.2089844c.210481.00856.373082.1538641.408203.3652344l.84961 5.261719 4.625 2.667968c.178822.102941.258069.30884.193359.507813l-1.695312 5.058594 2.855468 4.507812c.110353.174077.084794.392514-.066406.53711l-3.851562 3.693359.433593 5.318359c.01733.213049-.102585.388189-.30664.447266l-5.126953 1.478516-2.083985 4.910156c-.08342.195914-.280968.296977-.472656.255859l-.003906-.001953-5.236328-1.072265-4.128907 3.378906c-.08188.06723-.171803.097656-.269531.097656-.09978 0-.190761-.029433-.271484-.095703l-4.128907-3.378906-5.236328 1.072265h-.005859c-.191534.04132-.385813-.05952-.470703-.257812v.003906l-2.083984-4.912109-5.1250005-1.476563c-.2030199-.059232-.3256474-.237884-.3085937-.447266l.4335937-5.320312-3.8515625-3.691406v-.001953c-.1512188-.14457-.1774782-.359945-.0664062-.535157l2.8574218-4.507812-1.6972656-5.060547c-.065714-.197143.013095-.40209.1933594-.505859h.0019531l4.6230469-2.667969.8515626-5.2675782c.0336-.2082833.194602-.3520707.404297-.3613282l5.332031-.2089844 3.199219-4.2675781c.096154-.127327.240581-.1886596.384765-.1738281zm-7.55664 16.53125c-2.8000002 0-3.2011721 1.999609-3.2011721 2.599609 0 3.3 5.3007811 1.8 5.3007811 4 0 .1-.10039 1.300782-1.90039 1.300782-2.2 0-2.199219-1.600391-2.199219-1.900391v.099609h-1.5000002c0 .7.2992187 3.09961 3.6992192 3.09961.4 0 3.5-.198828 3.5-2.798828 0-3.3-5.298829-1.9-5.298829-4 0-.2.09961-1.09961 1.59961-1.09961 1.6 0 1.90039.9 1.90039 1.5h1.5c0-.6-.30039-2.800781-3.40039-2.800781zm8 .099609-3.400391 8.800782h1.59961l.800781-2.300782h3.5l.90039 2.300782h1.59961l-3.400391-8.800782zm6.40039 0v8.701172h6v-1.300781h-4.5v-7.400391zm7.699219 0v8.800782h6.400391v-1.300782h-4.900391v-2.599609h4.400391v-1.300781h-4.400391v-2.298828h4.800781v-1.300782zm-13.300781 1.5 1.300781 3.800782h-2.699219z"/></svg>

<svg xmlns="http://www.w3.org/2000/svg" viewBox="0 0 50 50" width="50" height="50" fill="#666"><path d="M 30.171875 2.0390625 C 29.772308 2.0096943 29.362201 2.0810982 28.982422 2.2636719 L 25 4.1582031 L 21.015625 2.2617188 L 21.013672 2.2617188 C 20.002382 1.7791224 18.778851 2.0829241 18.105469 2.9746094 L 18.105469 2.9765625 L 15.457031 6.5097656 L 11.044922 6.6835938 L 11.042969 6.6835938 C 9.9255354 6.7290366 8.9829928 7.5667188 8.8046875 8.671875 L 8.0996094 13.029297 L 4.2753906 15.236328 C 3.3056554 15.794558 2.8566519 16.972299 3.2109375 18.035156 L 4.6152344 22.224609 L 2.2519531 25.953125 C 1.653025 26.897913 1.8025001 28.150398 2.6132812 28.925781 L 5.7988281 31.980469 L 5.4394531 36.380859 C 5.3485071 37.497478 6.0657317 38.532982 7.1367188 38.845703 L 7.1386719 38.845703 L 11.380859 40.068359 L 13.107422 44.132812 L 13.107422 44.134766 C 13.546532 45.160473 14.661112 45.762119 15.767578 45.523438 L 20.087891 44.638672 L 23.501953 47.433594 L 23.501953 47.431641 C 23.93523 47.787366 24.471731 47.96875 25.001953 47.96875 C 25.534225 47.96875 26.067883 47.786414 26.5 47.431641 L 29.914062 44.636719 L 34.234375 45.521484 C 35.338687 45.758366 36.455946 45.160945 36.894531 44.130859 L 38.621094 40.068359 L 42.861328 38.845703 L 42.863281 38.845703 C 43.937226 38.53478 44.653174 37.495811 44.5625 36.380859 L 44.203125 31.978516 L 47.388672 28.923828 C 48.198308 28.148325 48.351272 26.896576 47.751953 25.951172 L 45.388672 22.222656 L 46.792969 18.033203 L 46.792969 18.03125 C 47.143072 16.970842 46.699089 15.79309 45.728516 15.234375 L 41.902344 13.027344 L 41.199219 8.6679688 L 41.199219 8.6660156 C 41.016296 7.5654307 40.074551 6.7290351 38.957031 6.6835938 L 34.544922 6.5097656 L 31.896484 2.9785156 C 31.559851 2.5296706 31.083761 2.2289026 30.566406 2.1015625 C 30.437068 2.0697275 30.305064 2.0488519 30.171875 2.0390625 z M 20.037109 3.96875 C 20.085171 3.9736939 20.133612 3.9877294 20.179688 4.0097656 L 25 6.3027344 L 29.820312 4.0097656 L 29.822266 4.0097656 C 30.003522 3.9226286 30.220971 3.9743156 30.345703 4.140625 L 33.546875 8.4101562 L 38.878906 8.6191406 C 39.089387 8.6277006 39.251988 8.7730047 39.287109 8.984375 L 40.136719 14.246094 L 44.761719 16.914062 C 44.940541 17.017003 45.019788 17.222902 44.955078 17.421875 L 43.259766 22.480469 L 46.115234 26.988281 C 46.225587 27.162358 46.200028 27.380795 46.048828 27.525391 L 42.197266 31.21875 L 42.630859 36.537109 C 42.648189 36.750158 42.528274 36.925298 42.324219 36.984375 L 37.197266 38.462891 L 35.113281 43.373047 C 35.029861 43.568961 34.832313 43.670024 34.640625 43.628906 L 34.636719 43.626953 L 29.400391 42.554688 L 25.271484 45.933594 C 25.189604 46.000824 25.099681 46.03125 25.001953 46.03125 C 24.902173 46.03125 24.811192 46.001817 24.730469 45.935547 L 20.601562 42.556641 L 15.365234 43.628906 L 15.359375 43.628906 C 15.167841 43.670226 14.973562 43.569386 14.888672 43.371094 L 14.888672 43.375 L 12.804688 38.462891 L 7.6796875 36.986328 C 7.4766676 36.927096 7.3540401 36.748444 7.3710938 36.539062 L 7.8046875 31.21875 L 3.953125 27.527344 L 3.953125 27.525391 C 3.8019062 27.380821 3.7756468 27.165446 3.8867188 26.990234 L 6.7441406 22.482422 L 5.046875 17.421875 C 4.981161 17.224732 5.05997 17.019785 5.2402344 16.916016 L 5.2421875 16.916016 L 9.8652344 14.248047 L 10.716797 8.9804688 C 10.750397 8.7721855 10.911399 8.6283981 11.121094 8.6191406 L 16.453125 8.4101562 L 19.652344 4.1425781 C 19.748498 4.0152511 19.892925 3.9539185 20.037109 3.96875 z M 12.480469 20.5 C 9.6804688 20.5 9.2792969 22.499609 9.2792969 23.099609 C 9.2792969 26.399609 14.580078 24.899609 14.580078 27.099609 C 14.580078 27.199609 14.479688 28.400391 12.679688 28.400391 C 10.479688 28.400391 10.480469 26.8 10.480469 26.5 L 10.480469 26.599609 L 8.9804688 26.599609 C 8.9804688 27.299609 9.2796875 29.699219 12.679688 29.699219 C 13.079688 29.699219 16.179688 29.500391 16.179688 26.900391 C 16.179688 23.600391 10.880859 25.000391 10.880859 22.900391 C 10.880859 22.700391 10.980469 21.800781 12.480469 21.800781 C 14.080469 21.800781 14.380859 22.700781 14.380859 23.300781 L 15.880859 23.300781 C 15.880859 22.700781 15.580469 20.5 12.480469 20.5 z M 20.480469 20.599609 L 17.080078 29.400391 L 18.679688 29.400391 L 19.480469 27.099609 L 22.980469 27.099609 L 23.880859 29.400391 L 25.480469 29.400391 L 22.080078 20.599609 L 20.480469 20.599609 z M 26.880859 20.599609 L 26.880859 29.300781 L 32.880859 29.300781 L 32.880859 28 L 28.380859 28 L 28.380859 20.599609 L 26.880859 20.599609 z M 34.580078 20.599609 L 34.580078 29.400391 L 40.980469 29.400391 L 40.980469 28.099609 L 36.080078 28.099609 L 36.080078 25.5 L 40.480469 25.5 L 40.480469 24.199219 L 36.080078 24.199219 L 36.080078 21.900391 L 40.880859 21.900391 L 40.880859 20.599609 L 34.580078 20.599609 z M 21.279297 22.099609 L 22.580078 25.900391 L 19.880859 25.900391 L 21.279297 22.099609 z"/></svg>
